X: 109
T:Munera de Casu
M:6/8
L:1/8
S:Llan de Cubel
Z:Rachel Marsh
K:G
GBc | ded cBc | dcB GAB | ded cBA | ABG GBc | ded cBc |
dcB GAB | ded cBA | G3 :|| gfe | dBc dce | dcB GAB | ded cBc | d2 d gfe
|
dBc dce | dcB GAB | ded cBA  | G3 :|| GAB | Bcc cBc | dcB GAB | Bcc cBA
| B2 G GAB | cdc cBc | d2 B G2 B | ded cBA | G3 :||
<end>
<start>
